packages/components/Atoms/Icon/assets/img/rpl_icon_dot.svg

<svg width="21" height="20" viewBox="0 0 21 20" overflow="visible" xmlns="http://www.w3.org/2000/svg">
  <path fill-rule="evenodd" clip-rule="evenodd" d="M10 5V2.824L12.176 5H10ZM10.003 0H1C0.447 0 0 0.447 0 1V19C0 19.553 0.447 20 1 20H14C14.553 20 15 19.553 15 19V16H13V18H2V2H8V6C8 6.553 8.447 7 9 7H13V9H15V4.997L10.003 0Z"
    fill="inherit" />
  <path fill-rule="evenodd" clip-rule="evenodd" d="M10.3535 11.3984C10.2415 11.2304 10.0735 11.1184 9.76451 11.1184H9.22551V13.9194H9.76451C10.0735 13.9194 10.2415 13.8074 10.3535 13.6394C10.4515 13.5004 10.4865 13.3674 10.4865 12.5194C10.4865 11.6784 10.4515 11.5394 10.3535 11.3984ZM11.1935 14.5224C10.8505 14.8654 10.3675 15.0124 9.84851 15.0124H7.99951V10.0264H9.84851C10.3675 10.0264 10.8505 10.1724 11.1935 10.5164C11.7755 11.0974 11.7115 11.7354 11.7115 12.5194C11.7115 13.3034 11.7755 13.9414 11.1935 14.5224Z"
    fill="inherit" />
  <path fill-rule="evenodd" clip-rule="evenodd" d="M14.6445 11.2939C14.5535 11.1749 14.3775 11.0759 14.1545 11.0759C13.9295 11.0759 13.7545 11.1749 13.6645 11.2939C13.5515 11.4399 13.4815 11.6079 13.4815 12.5199C13.4815 13.4299 13.5515 13.5909 13.6645 13.7379C13.7545 13.8569 13.9295 13.9619 14.1545 13.9619C14.3775 13.9619 14.5535 13.8569 14.6445 13.7379C14.7565 13.5909 14.8265 13.4299 14.8265 12.5199C14.8265 11.6079 14.7565 11.4399 14.6445 11.2939ZM15.5475 14.4939C15.1835 14.8579 14.7635 15.0549 14.1545 15.0549C13.5445 15.0549 13.1235 14.8579 12.7605 14.4939C12.2355 13.9689 12.2555 13.2689 12.2555 12.5199C12.2555 11.7699 12.2355 11.0689 12.7605 10.5439C13.1235 10.1799 13.5445 9.98389 14.1545 9.98389C14.7635 9.98389 15.1835 10.1799 15.5475 10.5439C16.0735 11.0689 16.0515 11.7699 16.0515 12.5199C16.0515 13.2689 16.0735 13.9689 15.5475 14.4939Z"
    fill="inherit" />
  <path fill-rule="evenodd" clip-rule="evenodd" d="M18.7744 11.1181V15.0131H17.5474V11.1181H16.3224V10.0261H20.0004V11.1181H18.7744Z"
    fill="inherit" />
</svg>

<svg width="21" height="20" overflow="visible" xmlns="http://www.w3.org/2000/svg"><path fill-rule="evenodd" clip-rule="evenodd" d="M10 5V2.824L12.176 5H10zm.003-5H1a1 1 0 00-1 1v18a1 1 0 001 1h13a1 1 0 001-1v-3h-2v2H2V2h6v4a1 1 0 001 1h4v2h2V4.997L10.003 0z" fill="inherit"/><path fill-rule="evenodd" clip-rule="evenodd" d="M10.354 11.398c-.112-.168-.28-.28-.59-.28h-.538v2.801h.539c.308 0 .476-.112.588-.28.098-.139.133-.272.133-1.12 0-.84-.035-.98-.133-1.12zm.84 3.124c-.344.343-.827.49-1.345.49h-1.85v-4.986h1.85c.518 0 1.002.146 1.345.49.581.581.517 1.22.517 2.003 0 .784.064 1.422-.518 2.003zM14.645 11.294a.615.615 0 00-.49-.218.61.61 0 00-.49.218c-.113.146-.183.314-.183 1.226 0 .91.07 1.07.183 1.218.09.119.265.224.49.224a.619.619 0 00.49-.224c.112-.147.181-.308.181-1.218 0-.912-.07-1.08-.181-1.226zm.902 3.2c-.364.364-.784.56-1.393.56-.61 0-1.03-.196-1.393-.56-.525-.525-.505-1.225-.505-1.974 0-.75-.02-1.451.505-1.976.363-.364.784-.56 1.394-.56.609 0 1.029.196 1.393.56.525.525.504 1.226.504 1.976 0 .749.021 1.449-.505 1.974zM18.774 11.118v3.895h-1.227v-3.895h-1.225v-1.092H20v1.092h-1.226z" fill="inherit"/></svg>
